X: 4330
T: SOLDIERS' CHORUS. (il Trovatore.)
%R: air, march
B: James Kerr "Merry Melodies" v.4 p.35 #330
Z: 2016 John Chambers <jc:trillian.mit.edu>
M: C
L: 1/8
K: C
|:!f!\
G2D>B A2D>c | B>dg>e d>cA>B |\
G>Bd>^c e>dB>G | A>^GA>B A2z2 |\
G2D>B A2D>c | B>dg>e d>cA>B |
G>Bd>e d>cA>B | (A4 G2)z2 H|]\
e>cG>c e2f>e | d>BG>B d2e>d |\
c>AF>A G>FG>B | d2f>e d>cB>"_D.C."A |]

%%sep 1 1 500
%%sep 1 1 500

